X:20
T: Der Maedchenmoerder (Halewijn - Ulinger)
N: Q0041B
O: Mitteleuropa, Deutschland (BRD) , Ahrweiler, Bentgerhof
R: Ballade, Verfuehrung, Mord, Mordversuch bzw. Rache
M: 6/8
L: 1/16
K: G
D2 | D2G2G2G2A2B2 | B2A2A2A4
A2 | A3AA2A2B2c2 | d3BB2B4
GA | B3BB2B2c2d2 | d4e2d2c2
B2 | c3cc2c2c2c2 | c4d2B4
GA | B3BB2B2c2d2 | d4e2d2c2
B2 | c3cc2c2c2c2 | c4d2B4

@@@ Tune index: 756
